en/_assets/websql/connections.svg

<svg xmlns="http://www.w3.org/2000/svg" width="16" height="16" fill="none"><path stroke="#000" stroke-linecap="round" stroke-linejoin="round" stroke-miterlimit="10" stroke-width="1.5" d="M2 1v9c0 1.16.84 2 2 2h2"/><path stroke="#000" stroke-linecap="round" stroke-linejoin="round" stroke-miterlimit="10" stroke-width="1.5" d="M2 2c0 .93.07 2 1 2h3M7.44 6.7l6.1-.01c.38 0 .69-.31.69-.69V3.23a.57.57 0 0 0-.57-.57H9.91c-.17 0-.31-.14-.31-.31v-.63C9.61 1.4 9.32 1 9 1H7c-.3 0-.62.39-.62.68v3.96c0 .59.48 1.06 1.06 1.06ZM7.44 14.85l6.1-.01c.38 0 .69-.31.69-.69v-2.64c0-.38-.31-.69-.69-.69H9.91c-.17 0-.31-.14-.31-.31v-.63a.57.57 0 0 0-.57-.57H6.92c-.3 0-.54.24-.54.54v3.96c0 .57.48 1.05 1.06 1.04Z"/></svg>

<svg width="16" height="16" viewBox="0 0 16 16" fill="none" xmlns="http://www.w3.org/2000/svg">
<path d="M2 1V10C2 11.16 2.84 12 4 12H6" stroke="black" stroke-width="1.5" stroke-miterlimit="10" stroke-linecap="round" stroke-linejoin="round"/>
<path d="M2 2C2 2.93 2.07 4 3 4H6" stroke="black" stroke-width="1.5" stroke-miterlimit="10" stroke-linecap="round" stroke-linejoin="round"/>
<path d="M7.44 6.7L13.54 6.69C13.92 6.69 14.23 6.38 14.23 6V3.23C14.23 2.91 13.97 2.66 13.66 2.66H9.91C9.74 2.66 9.6 2.52 9.6 2.35V1.72C9.61 1.4 9.32 1 9 1H7C6.7 1 6.38 1.39 6.38 1.68V5.64C6.38 6.23 6.86 6.7 7.44 6.7Z" stroke="black" stroke-width="1.5" stroke-miterlimit="10" stroke-linecap="round" stroke-linejoin="round"/>
<path d="M7.44 14.85L13.54 14.84C13.92 14.84 14.23 14.53 14.23 14.15V11.51C14.23 11.13 13.92 10.82 13.54 10.82H9.91C9.74 10.82 9.6 10.68 9.6 10.51V9.88C9.6 9.56 9.34 9.31 9.03 9.31H6.92C6.62 9.31 6.38 9.55 6.38 9.85V13.81C6.38 14.38 6.86 14.86 7.44 14.85Z" stroke="black" stroke-width="1.5" stroke-miterlimit="10" stroke-linecap="round" stroke-linejoin="round"/>
</svg>
